!!!OTL: Yuba zhen xongcan
!!!ARE: Asia, China,ˇGuangdong, Haifeng
!! II, 392
!!!SCT: C1510
!!!YEM: Copyright 1995, estate of Helmut Schaffrath.
**kern
*ICvox
*Ivox
!! Mixed meters:  2/4; 3/4
*M2/4
*k[]
*C:
{8a
8g
4cc
=1
8a
8g
8cc
8a
=2
4.g}
{8a
=3
4g
8g
8a
=4
4cc
8a
8dd
=5
4.dd
8cc
=6
2dd}
=7
{4ee
8ee
8cc
=8
8dd
8cc
8dd
8ee
=9
4.dd}
{8cc
=10
8dd
8cc
8cc
8a
=11
4g
16dd
16cc
8a
=12
4.g
8a
=13
4.g
8r}
=14
{8.g
16a
8cc
8dd
=15
8cc
8a
4cc}
=16
{8a
16dd
16cc
8a
8g
=17
8a
8g
8a
8cc
=18
16g
16a
8cc
8g
8a
=19
4.g}
{8a
=20
8.g
16a
8cc
8g
=21
8.g
16a
8dd
16a
16cc
=22
4cc
12dd
12cc
12a
=23
*M3/4
8g
8cc
8a
8r
8a
16g
16a
=24
2g}
==
!!!AGN: Xiaodiao, YÅge
!!!AMT: irregular
!!!AIN: vox
!!!EED: Helmut Schaffrath
!!!EEV: 1.0
*-
